icons/Editor/send-backward.svg

<svg viewBox="0 0 24 24" xmlns="http://www.w3.org/2000/svg"><path d="M14 3C14.5523 3 15 3.44772 15 4V9H20C20.5523 9 21 9.44772 21 10V20C21 20.5523 20.5523 21 20 21H10C9.44772 21 9 20.5523 9 20V15H4C3.44772 15 3 14.5523 3 14V4C3 3.44772 3.44772 3 4 3H14ZM13 5H5V13H9V10C9 9.44772 9.44772 9 10 9H13V5Z"/></svg>

<svg xmlns="http://www.w3.org/2000/svg" viewBox="0 0 24 24">
    <g>
        <path fill="none" d="M0 0H24V24H0z"/>
        <path d="M14 3c.552 0 1 .448 1 1v5h5c.552 0 1 .448 1 1v10c0 .552-.448 1-1 1H10c-.552 0-1-.448-1-1v-5H4c-.552 0-1-.448-1-1V4c0-.552.448-1 1-1h10zm-1 2H5v8h4v-3c0-.552.448-1 1-1h3V5z"/>
    </g>
</svg>
